cssgg/arrow-long-up-c.svg

<svg
  width="24"
  height="24"
  viewBox="0 0 24 24"
  fill="none"
  xmlns="http://www.w3.org/2000/svg"
>
  <path
    fill-rule="evenodd"
    clip-rule="evenodd"
    d="M7.75751 5.23078L12.0321 1.02029L16.2425 5.29492L14.8177 6.69842L13.0141 4.86736L12.9427 17.1555C14.1054 17.5732 14.9345 18.6881 14.9283 19.994C14.9204 21.6508 13.5709 22.9876 11.9141 22.9797C10.2572 22.9718 8.92049 21.6223 8.92836 19.9655C8.93456 18.6589 9.77508 17.5514 10.9427 17.1454L11.0142 4.83017L9.161 6.65563L7.75751 5.23078ZM11.9331 18.9797C11.3808 18.9771 10.931 19.4227 10.9283 19.975C10.9257 20.5273 11.3713 20.9771 11.9236 20.9797C12.4759 20.9823 12.9257 20.5367 12.9283 19.9845C12.9309 19.4322 12.4853 18.9824 11.9331 18.9797Z"
    fill="currentColor"
  />
</svg>

<svg viewBox="0 0 24 24" xmlns="http://www.w3.org/2000/svg"><path fill-rule="evenodd" d="M7.75 5.23l4.27-4.22 4.21 4.27 -1.43 1.4 -1.81-1.84 -.08 12.28c1.16.41 1.99 1.53 1.98 2.83 -.01 1.65-1.36 2.99-3.02 2.98 -1.66-.01-3-1.36-2.99-3.02 0-1.31.84-2.42 2.01-2.83l.07-12.32L9.1 6.58 7.69 5.15Zm4.17 13.74c-.56-.01-1.01.44-1.01.99 -.01.55.44 1 .99 1s1-.45 1-1c0-.56-.45-1.01-1-1.01Z"/></svg>
